X: 734
T: Widow Brady, The
R:jig
N:"Collected by F. O'Neill"
B:O'Neill's 734
Z:Transcribed by Michael Hogan
M:6/8
L:1/8
K:D
d | AFD DFA | AFA B2d | AFD DFA | fdB B2d |
AFD DFA | AFA B2d | def {a}gfe | fdd d2 :|
d | afd fed | ecA Ace | fed dec | ecA A2 f/g/ |
aba gfe | fed cBA | Bcd efg | fdd d2 :|


